X: 4
T: HORNPIPES: Off to California Set
T: Off to California
C: C: Trad.; S: Various
C: Set Leaders: Olya, Tania, Oliushka, André
Z: Anton Zille ed., Oleg Naumov arr.; Mix O'Lydian / Jeremy / Martial at The Session
N: https://thesession.org/members/26966/sets/92386
R: Hornpipe
M: 4/4
L: 1/8
Q: 1/2=82
K: Gmaj
|:(3DEF|"G"G>FG>B A>GE>D|"G"G>Bd>g "C"e2 (3def|"G"g>fg>d "Em"e>dB>G|"Am"A>BA>G "D"E2 (3DEF|
"G"G>FG>B A>GE>D|"G"G>Bd>g "C"e2 (3def|"G"g>fg>d "Em"e>dB>G|"C"A>G"D"E>F "G"G2:||
|:(3def|"Em"g>fe>g "D"f>ed>f|"Em (C)"e>de>f "D (C)"e>dB>d|"G"g>fg>d "Em (G)"e>dB>G|"Am (C)"A>BA>G "D"E2 (3DEF|
"G"G>FG>B "C (G)"A>GE>D|"G (C)"G>Bd>g "C (D)"e2 (3def|"G"g>fg>d "Em (C)"e>dB>G|"Am"(3ABA "D"E>F "G"G2:||
T: Harvest Home
K: Dmaj
|:AF|"D"DAFA DAFA|"D"defe "(G)"dcBA|"A"eAfA gAfA|"A"(3efe (3dcB AGFE|
"D"DAFA DAFA|"D"defe "G"dcBA|"A"eAfA gfec|"D"d2 "A"f2 "D"d2:||
|:cd|"A"eAAA fAAA|"G"gA"D"fA "A"eAAA|"A"eAfA "G"gAfA|"A"(3efe (3dcB (3ABA (3GFE|
"D"DAFA DAFA|"D"defe "G"dcBA|"A"eAfA gfec|"D"d2 "A"f2 "D"d2:||
T: Rights of Man
K: Emin
|:GA|"Em"BcAB GAFG|"Em"EFGA B2 ef|"C"gfed edBd|"D"cBAG A2GA|
"Em"BcAB GAFG|"Em"EFGA B2ef|"C"gfed "D"Bgfg|"Em"e2 E2 E2:||
|:ga|"Em"babg efga |"Em"babg "A"egfe |"D"d2d^c defg|"D"afdf "(Bm)"a2 gf|
"Em (C)"edef "(D)"gfga |"(G)"bg"(D)"af "D (C)"gfef|"C (Am)"gfed "Bm"Bgfg|"Em"e2 E2 E2:||

